Papirus/24x24/panel/google-chrome-notification.svg

<?xml version="1.0" encoding="UTF-8" standalone="no"?>
<svg xmlns:dc="http://purl.org/dc/elements/1.1/" xmlns:cc="http://creativecommons.org/ns#" xmlns:rdf="http://www.w3.org/1999/02/22-rdf-syntax-ns#" xmlns:svg="http://www.w3.org/2000/svg" xmlns="http://www.w3.org/2000/svg" version="1.1" id="svg2" height="24" viewBox="0 0 6.7733335 6.7733335" width="24">
    <metadata id="metadata18">
        <rdf:RDF>
            <cc:Work rdf:about="">
                <dc:format>
                    image/svg+xml
                </dc:format>
                <dc:type rdf:resource="http://purl.org/dc/dcmitype/StillImage"/>
                <dc:title/>
            </cc:Work>
        </rdf:RDF>
    </metadata>
    <g transform="translate(0.28222227,0.28222227)" id="g4134">
        <path style="opacity:1;fill:#ffffff;fill-opacity:1" d="M 11,3 A 7.9999993,7.9999993 0 0 0 5.3964844,5.2929688 L 8.1523438,10.066406 A 3.0000001,3.0000001 0 0 1 11,8 l 7.412109,0 A 7.9999993,7.9999993 0 0 0 11,3 Z M 4.6992188,6.0859375 A 7.9999993,7.9999993 0 0 0 3,11 7.9999993,7.9999993 0 0 0 8.8652344,18.701172 L 11.617188,13.933594 A 3.0000001,3.0000001 0 0 1 11,14 3.0000001,3.0000001 0 0 1 8.40625,12.498047 L 8.4023438,12.5 4.6992188,6.0859375 Z M 13.230469,9 A 3.0000001,3.0000001 0 0 1 14,11 3.0000001,3.0000001 0 0 1 13.595703,12.498047 l 0.002,0.002 -3.7031248,6.414062 A 7.9999993,7.9999993 0 0 0 11,19 7.9999993,7.9999993 0 0 0 19,11 7.9999993,7.9999993 0 0 0 18.740234,9 l -5.509765,0 z" transform="scale(0.28222222,0.28222222)" id="path4259"/>
        <path style="opacity:1;fill:#5294e2;fill-opacity:1" d="M 3.1044444,2.54 A 0.56444441,0.56444441 0 0 0 2.54,3.1044444 0.56444441,0.56444441 0 0 0 3.1044444,3.6688889 0.56444441,0.56444441 0 0 0 3.6688889,3.1044444 0.56444441,0.56444441 0 0 0 3.1044444,2.54 Z" id="path4255"/>
    </g>
</svg>

<?xml version="1.0" encoding="UTF-8" standalone="no"?>
<svg id="svg2" xmlns:rdf="http://www.w3.org/1999/02/22-rdf-syntax-ns#" xmlns="http://www.w3.org/2000/svg" height="24" viewBox="0 0 6.7733335 6.7733335" width="24" version="1.1" xmlns:cc="http://creativecommons.org/ns#" xmlns:dc="http://purl.org/dc/elements/1.1/">
 <metadata id="metadata18">
  <rdf:RDF>
   <cc:Work rdf:about="">
    <dc:format>image/svg+xml</dc:format>
    <dc:type rdf:resource="http://purl.org/dc/dcmitype/StillImage"/>
    <dc:title/>
   </cc:Work>
  </rdf:RDF>
 </metadata>
 <g id="g4134" transform="translate(.28222 .28222)">
  <path id="path4259" d="m11 3a8 8 0 0 0 -5.6035 2.293l2.7558 4.773a3 3 0 0 1 2.8477 -2.066h7.4121a8 8 0 0 0 -7.412 -5zm-6.3008 3.0859a8 8 0 0 0 -1.6992 4.9141 8 8 0 0 0 5.8652 7.701l2.7518-4.767a3 3 0 0 1 -0.617 0.066 3 3 0 0 1 -2.5938 -1.502l-0.0039 0.002-3.7031-6.4141zm8.5308 2.9141a3 3 0 0 1 0.77 2 3 3 0 0 1 -0.404 1.498l0.002 0.002-3.7031 6.4141a8 8 0 0 0 1.1051 0.086 8 8 0 0 0 8 -8 8 8 0 0 0 -0.26 -2h-5.5098z" transform="scale(.28222)" fill="#fff"/>
  <path id="path4255" d="m3.1044 2.54a0.56444 0.56444 0 0 0 -0.5644 0.5644 0.56444 0.56444 0 0 0 0.5644 0.5645 0.56444 0.56444 0 0 0 0.5645 -0.5645 0.56444 0.56444 0 0 0 -0.5645 -0.5644z" fill="#5294e2"/>
 </g>
</svg>
